fs/eye_tracking_off_20_regular.svg

<svg viewBox="0 0 20 20" fill="none" xmlns="http://www.w3.org/2000/svg" height="1em" width="1em">
  <path d="M2.41419 3.12131C2.15244 3.51653 2 3.99046 2 4.5V7.5C2 7.77614 2.22386 8 2.5 8C2.77614 8 3 7.77614 3 7.5V4.5C3 4.26843 3.05247 4.04912 3.14618 3.8533L6.28729 6.99441C5.96138 7.19277 5.67455 7.40623 5.42471 7.62037C4.95187 8.02566 4.61336 8.43151 4.39164 8.7385C4.28063 8.89222 4.19837 9.02188 4.14273 9.11535C4.11489 9.16212 4.09367 9.19991 4.0788 9.22722C4.07136 9.24089 4.0655 9.25194 4.0612 9.26019L4.0559 9.27046L4.05411 9.27397L4.05343 9.27532C4.0533 9.27558 4.0529 9.27639 4.50011 9.5L4.0529 9.27639C3.9294 9.52338 4.02951 9.82372 4.2765 9.94721C4.52335 10.0706 4.82348 9.97071 4.94711 9.72404L4.94787 9.7226L4.95707 9.70539C4.96612 9.68877 4.98103 9.6621 5.00202 9.62684C5.04404 9.55624 5.11022 9.45153 5.20232 9.324C5.38686 9.06849 5.67334 8.72434 6.07551 8.37963C6.3382 8.15446 6.65104 7.92823 7.01884 7.72596L8.31228 9.0194C7.52012 9.55941 7 10.469 7 11.5C7 13.1569 8.34315 14.5 10 14.5C11.031 14.5 11.9406 13.9799 12.4806 13.1877L16.1467 16.8538C15.9509 16.9475 15.7316 17 15.5 17H12.5C12.2239 17 12 17.2239 12 17.5C12 17.7761 12.2239 18 12.5 18H15.5C16.0095 18 16.4835 17.8476 16.8787 17.5858L17.1464 17.8536C17.3417 18.0488 17.6583 18.0488 17.8536 17.8536C18.0488 17.6583 18.0488 17.3417 17.8536 17.1465L17.5858 16.8787C17.5858 16.8787 17.5858 16.8787 17.5858 16.8787L16.8538 16.1467C16.8538 16.1467 16.8538 16.1467 16.8538 16.1467L12.9158 12.2087C12.9158 12.2087 12.9158 12.2087 12.9158 12.2087L9.29132 8.58419C9.29133 8.58419 9.29131 8.5842 9.29132 8.58419L8.00724 7.30014C8.00723 7.30015 8.00724 7.30014 8.00724 7.30014L7.22772 6.52059C7.22773 6.52059 7.22771 6.5206 7.22772 6.52059L3.85328 3.14619C3.85329 3.14619 3.85328 3.14619 3.85328 3.14619L3.12132 2.41419C3.12131 2.4142 3.12132 2.41419 3.12132 2.41419L2.85355 2.14646C2.65829 1.9512 2.34171 1.9512 2.14645 2.14646C1.95118 2.34172 1.95118 2.65831 2.14645 2.85357L2.41419 3.12131ZM11.7542 12.4613C11.4143 13.0804 10.7561 13.5 10 13.5C8.89543 13.5 8 12.6046 8 11.5C8 10.7439 8.4196 10.0857 9.03865 9.74577L11.7542 12.4613ZM17.9752 15.8538C17.9915 15.7382 18 15.6201 18 15.5V12.5C18 12.2239 17.7761 12 17.5 12C17.2239 12 17 12.2239 17 12.5V14.8787L17.9752 15.8538ZM9.16963 7.04829C9.43213 7.01699 9.70878 7 10.0001 7C11.8628 7 13.1257 7.69476 13.9247 8.37963C14.3269 8.72434 14.6134 9.06849 14.7979 9.324C14.89 9.45153 14.9562 9.55624 14.9982 9.62684C15.0192 9.6621 15.0341 9.68877 15.0432 9.70539L15.0524 9.7226L15.0531 9.72404L15.0537 9.72511C15.1776 9.971 15.4772 10.0705 15.7237 9.94721C15.9707 9.82372 16.0708 9.52338 15.9473 9.27639L15.9461 9.27397L15.9443 9.27046L15.939 9.26019C15.9347 9.25194 15.9289 9.24089 15.9214 9.22722C15.9065 9.19991 15.8853 9.16212 15.8575 9.11535C15.8019 9.02188 15.7196 8.89222 15.6086 8.7385C15.3869 8.43151 15.0483 8.02566 14.5755 7.62037C13.6245 6.80524 12.1374 6 10.0001 6C9.38134 6 8.81706 6.06749 8.30451 6.18318L9.16963 7.04829ZM15.9473 9.27639C15.9474 9.27652 15.9464 9.277 15.8893 9.30551L15.5022 9.49894L15.9473 9.27639ZM5.12134 3H7.5C7.77614 3 8 2.77614 8 2.5C8 2.22386 7.77614 2 7.5 2H4.5C4.37989 2 4.26177 2.00847 4.14618 2.02484L5.12134 3ZM4.5 17C3.67157 17 3 16.3284 3 15.5V12.5C3 12.2239 2.77614 12 2.5 12C2.22386 12 2 12.2239 2 12.5V15.5C2 16.8807 3.11929 18 4.5 18H7.5C7.77614 18 8 17.7761 8 17.5C8 17.2239 7.77614 17 7.5 17H4.5ZM15.5 3C16.3284 3 17 3.67157 17 4.5V7.5C17 7.77614 17.2239 8 17.5 8C17.7761 8 18 7.77614 18 7.5V4.5C18 3.11929 16.8807 2 15.5 2H12.5C12.2239 2 12 2.22386 12 2.5C12 2.77614 12.2239 3 12.5 3H15.5Z" fill="#212121"/>
</svg>

<svg viewBox="0 0 20 20" fill="none" xmlns="http://www.w3.org/2000/svg" height="1em" width="1em">
  <path d="M2.414 3.121A2.49 2.49 0 0 0 2 4.5v3a.5.5 0 0 0 1 0v-3c0-.232.052-.45.146-.647l3.141 3.141A6.592 6.592 0 0 0 4.392 8.74a5.14 5.14 0 0 0-.33.521l-.006.01-.002.004v.001s-.001.001.446.225l-.447-.224a.5.5 0 0 0 .894.448v-.001l.01-.018.045-.078a4.14 4.14 0 0 1 .2-.303A5.582 5.582 0 0 1 7.02 7.726l1.293 1.293a3 3 0 1 0 4.168 4.168l3.667 3.667A1.494 1.494 0 0 1 15.5 17h-3a.5.5 0 0 0 0 1h3c.51 0 .983-.152 1.379-.414l.267.268a.5.5 0 0 0 .708-.707l-.268-.268-.732-.732-3.938-3.938L9.29 8.584 8.007 7.3l-.78-.78-3.374-3.374-.732-.732-.267-.268a.5.5 0 1 0-.708.708l.268.267Zm9.34 9.34A2 2 0 1 1 9.04 9.746l2.715 2.715Zm6.221 3.393c.016-.116.025-.234.025-.354v-3a.5.5 0 0 0-1 0v2.379l.975.975ZM9.17 7.048C9.432 7.017 9.709 7 10 7c1.863 0 3.126.695 3.925 1.38.402.344.688.688.873.944a4.133 4.133 0 0 1 .245.381l.01.018v.002a.5.5 0 0 0 .894-.449v-.002l-.003-.004-.005-.01a5.13 5.13 0 0 0-.33-.522 6.491 6.491 0 0 0-1.034-1.118C13.626 6.805 12.137 6 10 6a7.68 7.68 0 0 0-1.695.183l.865.865Zm6.777 2.228-.058.03-.387.193.445-.223ZM5.121 3H7.5a.5.5 0 0 0 0-1h-3c-.12 0-.238.008-.354.025L5.121 3ZM4.5 17A1.5 1.5 0 0 1 3 15.5v-3a.5.5 0 0 0-1 0v3A2.5 2.5 0 0 0 4.5 18h3a.5.5 0 0 0 0-1h-3Zm11-14A1.5 1.5 0 0 1 17 4.5v3a.5.5 0 0 0 1 0v-3A2.5 2.5 0 0 0 15.5 2h-3a.5.5 0 0 0 0 1h3Z" fill="#212121"/>
</svg>
